X:145
T:Humors of Bantry, The
C:Joe Buchanan's Scottish Tome - Page 257.1
I:257 1
Z:Carl Allison
R:Jig
L:1/8
M:6/8
K:G
d | gfg e/f/ge | dBG AGE | DEG AGA | BGB AGE | gfg e/f/ge | dBG AGE | DEG AGA | BGG G2 :| 
d | edd gdd | edd gdB | def {a}gfg | edB AGE | gfg e/f/ge | dBG AGE | DGG A/B/cA | BGG G2 d | 
edd gdd | edd gdB | def {a}gfg | edB AGE | gfg aga | bge edB | GFG A/B/cA | BGG G2 |] 

